report_00007_2020-12-11T15:55:29.892Z/max-potential-fid/samples/pages+cached+noexternal/raw/values.svg

<svg width="640" height="490" xmlns="http://www.w3.org/2000/svg" xmlns:xlink="http://www.w3.org/1999/xlink"><path fill="#fff" d="M0 0h640v490H0z"/><defs><path id="d" stroke-width=".222" stroke="currentColor" d="M-1-1h2v2h-2z"/><path id="b" stroke-width=".222" stroke="currentColor" d="M0-1.33l-1.33 2h2.66z"/><path id="f" stroke-width=".222" stroke="currentColor" d="M0 1.33L1.265.411.782-1.067l-1.564-.009-.483 1.487z"/><use xlink:href="#b" id="c" stroke="currentColor" transform="rotate(180)"/><use xlink:href="#d" id="e" stroke="currentColor" transform="rotate(45)"/><circle id="a" stroke-width=".222" stroke="currentColor" cx="0" cy="0" r="1"/></defs><g fill="none" color="#000" stroke="currentColor"><path stroke="#000" d="M45.6 428h9m560.4 0h-9"/><text transform="translate(37.3 431.9)" stroke="none" fill="#000" font-family="Arial" font-size="12" text-anchor="end"><tspan>26</tspan></text></g><g fill="none" color="#000" stroke="currentColor"><path stroke="#000" d="M45.6 347.6h9m560.4 0h-9"/><text transform="translate(37.3 351.5)" stroke="none" fill="#000" font-family="Arial" font-size="12" text-anchor="end"><tspan>28</tspan></text></g><g fill="none" color="#000" stroke="currentColor"><path stroke="#000" d="M45.6 267.2h9m560.4 0h-9"/><text transform="translate(37.3 271.1)" stroke="none" fill="#000" font-family="Arial" font-size="12" text-anchor="end"><tspan>30</tspan></text></g><g fill="none" color="#000" stroke="currentColor"><path stroke="#000" d="M45.6 186.9h9m560.4 0h-9"/><text transform="translate(37.3 190.8)" stroke="none" fill="#000" font-family="Arial" font-size="12" text-anchor="end"><tspan>32</tspan></text></g><g fill="none" color="#000" stroke="currentColor"><path stroke="#000" d="M45.6 106.5h9m560.4 0h-9"/><text transform="translate(37.3 110.4)" stroke="none" fill="#000" font-family="Arial" font-size="12" text-anchor="end"><tspan>34</tspan></text></g><g fill="none" color="#000" stroke="currentColor"><path stroke="#000" d="M45.6 26.1h9m560.4 0h-9"/><text transform="translate(37.3 30)" stroke="none" fill="#000" font-family="Arial" font-size="12" text-anchor="end"><tspan>36</tspan></text></g><g fill="none" color="#000" stroke="currentColor"><path stroke="#000" d="M45.6 436v-9m0-408.9v9"/><text transform="translate(45.6 457.9)" stroke="none" fill="#000" font-family="Arial" font-size="12" text-anchor="middle"><tspan>0</tspan></text></g><g fill="none" color="#000" stroke="currentColor"><path stroke="#000" d="M103.1 436v-9m0-408.9v9"/><text transform="translate(103.1 457.9)" stroke="none" fill="#000" font-family="Arial" font-size="12" text-anchor="middle"><tspan>10</tspan></text></g><g fill="none" color="#000" stroke="currentColor"><path stroke="#000" d="M160.6 436v-9m0-408.9v9"/><text transform="translate(160.6 457.9)" stroke="none" fill="#000" font-family="Arial" font-size="12" text-anchor="middle"><tspan>20</tspan></text></g><g fill="none" color="#000" stroke="currentColor"><path stroke="#000" d="M218.1 436v-9m0-408.9v9"/><text transform="translate(218.1 457.9)" stroke="none" fill="#000" font-family="Arial" font-size="12" text-anchor="middle"><tspan>30</tspan></text></g><g fill="none" color="#000" stroke="currentColor"><path stroke="#000" d="M275.7 436v-9m0-408.9v9"/><text transform="translate(275.7 457.9)" stroke="none" fill="#000" font-family="Arial" font-size="12" text-anchor="middle"><tspan>40</tspan></text></g><g fill="none" color="#000" stroke="currentColor"><path stroke="#000" d="M333.2 436v-9m0-408.9v9"/><text transform="translate(333.2 457.9)" stroke="none" fill="#000" font-family="Arial" font-size="12" text-anchor="middle"><tspan>50</tspan></text></g><g fill="none" color="#000" stroke="currentColor"><path stroke="#000" d="M390.7 436v-9m0-408.9v9"/><text transform="translate(390.7 457.9)" stroke="none" fill="#000" font-family="Arial" font-size="12" text-anchor="middle"><tspan>60</tspan></text></g><g fill="none" color="#000" stroke="currentColor"><path stroke="#000" d="M448.2 436v-9m0-408.9v9"/><text transform="translate(448.2 457.9)" stroke="none" fill="#000" font-family="Arial" font-size="12" text-anchor="middle"><tspan>70</tspan></text></g><g fill="none" color="#000" stroke="currentColor"><path stroke="#000" d="M505.7 436v-9m0-408.9v9"/><text transform="translate(505.7 457.9)" stroke="none" fill="#000" font-family="Arial" font-size="12" text-anchor="middle"><tspan>80</tspan></text></g><g fill="none" color="#000" stroke="currentColor"><path stroke="#000" d="M563.2 436v-9m0-408.9v9"/><text transform="translate(563.2 457.9)" stroke="none" fill="#000" font-family="Arial" font-size="12" text-anchor="middle"><tspan>90</tspan></text></g><path stroke="#000" d="M45.6 18.1V436H615V18.1H45.6z" fill="none" color="#000"/><text transform="translate(175.7 475.9)" stroke="none" fill="#000" font-family="Arial" font-size="12" text-anchor="end" color="#000"><tspan>raw</tspan></text><path stroke="#9400D3" d="M184 472h42.2M45.6 267.2l5.8 120.6h5.7l5.8-160.7 5.7 160.7h5.8l5.7 40.2h5.8l5.7-40.2h17.3l5.7-40.2h5.8l5.7-281.3 5.8 281.3h11.5l5.7 40.2 5.8-80.4 5.7 40.2 5.8-80.4 5.7 80.4 5.8 40.2h5.7l5.8-40.2 5.7 40.2 5.8 40.2 5.7-80.4 5.8-160.7 5.7 160.7 5.8 40.2h5.7l5.8-321.5 5.8 321.5h5.7l5.8 40.2 5.7-401.9 5.8 321.5 5.7 80.4 5.8-80.4h5.7l5.8 40.2 5.7-40.2 5.8-281.3 5.7 321.5h5.8l5.7-281.3 5.8 80.4 5.7-120.6 5.8 321.5h5.7l5.8-40.2 5.7 40.2 5.8-40.2 5.7-241.1 5.8 200.9 5.7 40.2 5.8 40.2h23l5.7-40.2h5.8l5.7 40.2 5.8-281.3 5.8 281.3 5.7-40.2 5.8 40.2 5.7-40.2 5.8 40.2h5.7l5.8-40.2 5.7 80.4 5.8-40.2 5.7-120.6 5.8-80.3 5.7 160.7 5.8 40.2h11.5l5.7-200.9 5.8 120.5 5.7 40.2 5.8 40.2H546l5.7-200.9 5.8-160.8 5.7 321.5 5.8 40.2 5.7-80.4 5.8 80.4 5.7-40.2h5.8l5.7 40.2 5.8 40.2 5.7-80.4 5.8 40.2" fill="none" color="#000"/><text transform="translate(367.3 475.9)" stroke="none" fill="#000" font-family="Arial" font-size="12" text-anchor="end" color="#000"><tspan>score p10=130</tspan></text><path stroke="#009E73" d="M375.6 472h42.2" fill="none" color="#000"/><text transform="translate(558.9 475.9)" stroke="none" fill="#000" font-family="Arial" font-size="12" text-anchor="end" color="#000"><tspan>score median=250</tspan></text><path stroke="#56B4E9" d="M567.2 472h42.2" fill="none" color="#000"/><g fill="none" color="#000" stroke="currentColor"><path stroke="#000" d="M45.6 18.1V436H615V18.1H45.6z"/></g></svg>

<?xml version="1.0" encoding="utf-8"  standalone="no"?>
<svg 
 width="640" height="490"
 viewBox="0 0 640 490"
 xmlns="http://www.w3.org/2000/svg"
 xmlns:xlink="http://www.w3.org/1999/xlink"
>

<title>Gnuplot</title>
<desc>Produced by GNUPLOT 5.4 patchlevel 0 </desc>

<g id="gnuplot_canvas">

<rect x="0" y="0" width="640" height="490" fill="#ffffff"/>
<defs>

	<circle id='gpDot' r='0.5' stroke-width='0.5' stroke='currentColor'/>
	<path id='gpPt0' stroke-width='0.222' stroke='currentColor' d='M-1,0 h2 M0,-1 v2'/>
	<path id='gpPt1' stroke-width='0.222' stroke='currentColor' d='M-1,-1 L1,1 M1,-1 L-1,1'/>
	<path id='gpPt2' stroke-width='0.222' stroke='currentColor' d='M-1,0 L1,0 M0,-1 L0,1 M-1,-1 L1,1 M-1,1 L1,-1'/>
	<rect id='gpPt3' stroke-width='0.222' stroke='currentColor' x='-1' y='-1' width='2' height='2'/>
	<rect id='gpPt4' stroke-width='0.222' stroke='currentColor' fill='currentColor' x='-1' y='-1' width='2' height='2'/>
	<circle id='gpPt5' stroke-width='0.222' stroke='currentColor' cx='0' cy='0' r='1'/>
	<use xlink:href='#gpPt5' id='gpPt6' fill='currentColor' stroke='none'/>
	<path id='gpPt7' stroke-width='0.222' stroke='currentColor' d='M0,-1.33 L-1.33,0.67 L1.33,0.67 z'/>
	<use xlink:href='#gpPt7' id='gpPt8' fill='currentColor' stroke='none'/>
	<use xlink:href='#gpPt7' id='gpPt9' stroke='currentColor' transform='rotate(180)'/>
	<use xlink:href='#gpPt9' id='gpPt10' fill='currentColor' stroke='none'/>
	<use xlink:href='#gpPt3' id='gpPt11' stroke='currentColor' transform='rotate(45)'/>
	<use xlink:href='#gpPt11' id='gpPt12' fill='currentColor' stroke='none'/>
	<path id='gpPt13' stroke-width='0.222' stroke='currentColor' d='M0,1.330 L1.265,0.411 L0.782,-1.067 L-0.782,-1.076 L-1.265,0.411 z'/>
	<use xlink:href='#gpPt13' id='gpPt14' fill='currentColor' stroke='none'/>
	<filter id='textbox' filterUnits='objectBoundingBox' x='0' y='0' height='1' width='1'>
	  <feFlood flood-color='#FFFFFF' flood-opacity='1' result='bgnd'/>
	  <feComposite in='SourceGraphic' in2='bgnd' operator='atop'/>
	</filter>
	<filter id='greybox' filterUnits='objectBoundingBox' x='0' y='0' height='1' width='1'>
	  <feFlood flood-color='lightgrey' flood-opacity='1' result='grey'/>
	  <feComposite in='SourceGraphic' in2='grey' operator='atop'/>
	</filter>
</defs>
<g fill="none" color="#FFFFFF" stroke="black" stroke-width="1.00" stroke-linecap="butt" stroke-linejoin="miter">
</g>
<g fill="none" color="black" stroke="currentColor" stroke-width="1.00" stroke-linecap="butt" stroke-linejoin="miter">
	<path stroke='black'  d='M45.6,428.0 L54.6,428.0 M615.0,428.0 L606.0,428.0  '/>	<g transform="translate(37.3,431.9)" stroke="none" fill="black" font-family="Arial" font-size="12.00"  text-anchor="end">
		<text><tspan font-family="Arial" > 26</tspan></text>
	</g>
</g>
<g fill="none" color="black" stroke="currentColor" stroke-width="1.00" stroke-linecap="butt" stroke-linejoin="miter">
	<path stroke='black'  d='M45.6,347.6 L54.6,347.6 M615.0,347.6 L606.0,347.6  '/>	<g transform="translate(37.3,351.5)" stroke="none" fill="black" font-family="Arial" font-size="12.00"  text-anchor="end">
		<text><tspan font-family="Arial" > 28</tspan></text>
	</g>
</g>
<g fill="none" color="black" stroke="currentColor" stroke-width="1.00" stroke-linecap="butt" stroke-linejoin="miter">
	<path stroke='black'  d='M45.6,267.2 L54.6,267.2 M615.0,267.2 L606.0,267.2  '/>	<g transform="translate(37.3,271.1)" stroke="none" fill="black" font-family="Arial" font-size="12.00"  text-anchor="end">
		<text><tspan font-family="Arial" > 30</tspan></text>
	</g>
</g>
<g fill="none" color="black" stroke="currentColor" stroke-width="1.00" stroke-linecap="butt" stroke-linejoin="miter">
	<path stroke='black'  d='M45.6,186.9 L54.6,186.9 M615.0,186.9 L606.0,186.9  '/>	<g transform="translate(37.3,190.8)" stroke="none" fill="black" font-family="Arial" font-size="12.00"  text-anchor="end">
		<text><tspan font-family="Arial" > 32</tspan></text>
	</g>
</g>
<g fill="none" color="black" stroke="currentColor" stroke-width="1.00" stroke-linecap="butt" stroke-linejoin="miter">
	<path stroke='black'  d='M45.6,106.5 L54.6,106.5 M615.0,106.5 L606.0,106.5  '/>	<g transform="translate(37.3,110.4)" stroke="none" fill="black" font-family="Arial" font-size="12.00"  text-anchor="end">
		<text><tspan font-family="Arial" > 34</tspan></text>
	</g>
</g>
<g fill="none" color="black" stroke="currentColor" stroke-width="1.00" stroke-linecap="butt" stroke-linejoin="miter">
	<path stroke='black'  d='M45.6,26.1 L54.6,26.1 M615.0,26.1 L606.0,26.1  '/>	<g transform="translate(37.3,30.0)" stroke="none" fill="black" font-family="Arial" font-size="12.00"  text-anchor="end">
		<text><tspan font-family="Arial" > 36</tspan></text>
	</g>
</g>
<g fill="none" color="black" stroke="currentColor" stroke-width="1.00" stroke-linecap="butt" stroke-linejoin="miter">
	<path stroke='black'  d='M45.6,436.0 L45.6,427.0 M45.6,18.1 L45.6,27.1  '/>	<g transform="translate(45.6,457.9)" stroke="none" fill="black" font-family="Arial" font-size="12.00"  text-anchor="middle">
		<text><tspan font-family="Arial" > 0</tspan></text>
	</g>
</g>
<g fill="none" color="black" stroke="currentColor" stroke-width="1.00" stroke-linecap="butt" stroke-linejoin="miter">
	<path stroke='black'  d='M103.1,436.0 L103.1,427.0 M103.1,18.1 L103.1,27.1  '/>	<g transform="translate(103.1,457.9)" stroke="none" fill="black" font-family="Arial" font-size="12.00"  text-anchor="middle">
		<text><tspan font-family="Arial" > 10</tspan></text>
	</g>
</g>
<g fill="none" color="black" stroke="currentColor" stroke-width="1.00" stroke-linecap="butt" stroke-linejoin="miter">
	<path stroke='black'  d='M160.6,436.0 L160.6,427.0 M160.6,18.1 L160.6,27.1  '/>	<g transform="translate(160.6,457.9)" stroke="none" fill="black" font-family="Arial" font-size="12.00"  text-anchor="middle">
		<text><tspan font-family="Arial" > 20</tspan></text>
	</g>
</g>
<g fill="none" color="black" stroke="currentColor" stroke-width="1.00" stroke-linecap="butt" stroke-linejoin="miter">
	<path stroke='black'  d='M218.1,436.0 L218.1,427.0 M218.1,18.1 L218.1,27.1  '/>	<g transform="translate(218.1,457.9)" stroke="none" fill="black" font-family="Arial" font-size="12.00"  text-anchor="middle">
		<text><tspan font-family="Arial" > 30</tspan></text>
	</g>
</g>
<g fill="none" color="black" stroke="currentColor" stroke-width="1.00" stroke-linecap="butt" stroke-linejoin="miter">
	<path stroke='black'  d='M275.7,436.0 L275.7,427.0 M275.7,18.1 L275.7,27.1  '/>	<g transform="translate(275.7,457.9)" stroke="none" fill="black" font-family="Arial" font-size="12.00"  text-anchor="middle">
		<text><tspan font-family="Arial" > 40</tspan></text>
	</g>
</g>
<g fill="none" color="black" stroke="currentColor" stroke-width="1.00" stroke-linecap="butt" stroke-linejoin="miter">
	<path stroke='black'  d='M333.2,436.0 L333.2,427.0 M333.2,18.1 L333.2,27.1  '/>	<g transform="translate(333.2,457.9)" stroke="none" fill="black" font-family="Arial" font-size="12.00"  text-anchor="middle">
		<text><tspan font-family="Arial" > 50</tspan></text>
	</g>
</g>
<g fill="none" color="black" stroke="currentColor" stroke-width="1.00" stroke-linecap="butt" stroke-linejoin="miter">
	<path stroke='black'  d='M390.7,436.0 L390.7,427.0 M390.7,18.1 L390.7,27.1  '/>	<g transform="translate(390.7,457.9)" stroke="none" fill="black" font-family="Arial" font-size="12.00"  text-anchor="middle">
		<text><tspan font-family="Arial" > 60</tspan></text>
	</g>
</g>
<g fill="none" color="black" stroke="currentColor" stroke-width="1.00" stroke-linecap="butt" stroke-linejoin="miter">
	<path stroke='black'  d='M448.2,436.0 L448.2,427.0 M448.2,18.1 L448.2,27.1  '/>	<g transform="translate(448.2,457.9)" stroke="none" fill="black" font-family="Arial" font-size="12.00"  text-anchor="middle">
		<text><tspan font-family="Arial" > 70</tspan></text>
	</g>
</g>
<g fill="none" color="black" stroke="currentColor" stroke-width="1.00" stroke-linecap="butt" stroke-linejoin="miter">
	<path stroke='black'  d='M505.7,436.0 L505.7,427.0 M505.7,18.1 L505.7,27.1  '/>	<g transform="translate(505.7,457.9)" stroke="none" fill="black" font-family="Arial" font-size="12.00"  text-anchor="middle">
		<text><tspan font-family="Arial" > 80</tspan></text>
	</g>
</g>
<g fill="none" color="black" stroke="currentColor" stroke-width="1.00" stroke-linecap="butt" stroke-linejoin="miter">
	<path stroke='black'  d='M563.2,436.0 L563.2,427.0 M563.2,18.1 L563.2,27.1  '/>	<g transform="translate(563.2,457.9)" stroke="none" fill="black" font-family="Arial" font-size="12.00"  text-anchor="middle">
		<text><tspan font-family="Arial" > 90</tspan></text>
	</g>
</g>
<g fill="none" color="black" stroke="currentColor" stroke-width="1.00" stroke-linecap="butt" stroke-linejoin="miter">
</g>
<g fill="none" color="black" stroke="currentColor" stroke-width="1.00" stroke-linecap="butt" stroke-linejoin="miter">
	<path stroke='black'  d='M45.6,18.1 L45.6,436.0 L615.0,436.0 L615.0,18.1 L45.6,18.1 Z  '/></g>
<g fill="none" color="black" stroke="currentColor" stroke-width="1.00" stroke-linecap="butt" stroke-linejoin="miter">
</g>
	<g id="gnuplot_plot_1" ><title>raw</title>
<g fill="none" color="black" stroke="currentColor" stroke-width="1.00" stroke-linecap="butt" stroke-linejoin="miter">
	<g transform="translate(175.7,475.9)" stroke="none" fill="black" font-family="Arial" font-size="12.00"  text-anchor="end">
		<text><tspan font-family="Arial" >raw</tspan></text>
	</g>
</g>
<g fill="none" color="black" stroke="currentColor" stroke-width="1.00" stroke-linecap="butt" stroke-linejoin="miter">
	<path stroke='rgb(148,   0, 211)'  d='M184.0,472.0 L226.2,472.0 M45.6,267.2 L51.4,387.8 L57.1,387.8 L62.9,227.1 L68.6,387.8 L74.4,387.8
		L80.1,428.0 L85.9,428.0 L91.6,387.8 L97.4,387.8 L103.1,387.8 L108.9,387.8 L114.6,347.6 L120.4,347.6
		L126.1,66.3 L131.9,347.6 L137.6,347.6 L143.4,347.6 L149.1,387.8 L154.9,307.4 L160.6,347.6 L166.4,267.2
		L172.1,347.6 L177.9,387.8 L183.6,387.8 L189.4,347.6 L195.1,387.8 L200.9,428.0 L206.6,347.6 L212.4,186.9
		L218.1,347.6 L223.9,387.8 L229.6,387.8 L235.4,66.3 L241.2,387.8 L246.9,387.8 L252.7,428.0 L258.4,26.1
		L264.2,347.6 L269.9,428.0 L275.7,347.6 L281.4,347.6 L287.2,387.8 L292.9,347.6 L298.7,66.3 L304.4,387.8
		L310.2,387.8 L315.9,106.5 L321.7,186.9 L327.4,66.3 L333.2,387.8 L338.9,387.8 L344.7,347.6 L350.4,387.8
		L356.2,347.6 L361.9,106.5 L367.7,307.4 L373.4,347.6 L379.2,387.8 L384.9,387.8 L390.7,387.8 L396.4,387.8
		L402.2,387.8 L407.9,347.6 L413.7,347.6 L419.4,387.8 L425.2,106.5 L431.0,387.8 L436.7,347.6 L442.5,387.8
		L448.2,347.6 L454.0,387.8 L459.7,387.8 L465.5,347.6 L471.2,428.0 L477.0,387.8 L482.7,267.2 L488.5,186.9
		L494.2,347.6 L500.0,387.8 L505.7,387.8 L511.5,387.8 L517.2,186.9 L523.0,307.4 L528.7,347.6 L534.5,387.8
		L540.2,387.8 L546.0,387.8 L551.7,186.9 L557.5,26.1 L563.2,347.6 L569.0,387.8 L574.7,307.4 L580.5,387.8
		L586.2,347.6 L592.0,347.6 L597.7,387.8 L603.5,428.0 L609.2,347.6 L615.0,387.8  '/></g>
	</g>
	<g id="gnuplot_plot_2" ><title>score p10=130</title>
<g fill="none" color="black" stroke="currentColor" stroke-width="1.00" stroke-linecap="butt" stroke-linejoin="miter">
	<g transform="translate(367.3,475.9)" stroke="none" fill="black" font-family="Arial" font-size="12.00"  text-anchor="end">
		<text><tspan font-family="Arial" >score p10=130</tspan></text>
	</g>
</g>
<g fill="none" color="black" stroke="currentColor" stroke-width="1.00" stroke-linecap="butt" stroke-linejoin="miter">
	<path stroke='rgb(  0, 158, 115)'  d='M375.6,472.0 L417.8,472.0  '/></g>
	</g>
	<g id="gnuplot_plot_3" ><title>score median=250</title>
<g fill="none" color="black" stroke="currentColor" stroke-width="1.00" stroke-linecap="butt" stroke-linejoin="miter">
	<g transform="translate(558.9,475.9)" stroke="none" fill="black" font-family="Arial" font-size="12.00"  text-anchor="end">
		<text><tspan font-family="Arial" >score median=250</tspan></text>
	</g>
</g>
<g fill="none" color="black" stroke="currentColor" stroke-width="1.00" stroke-linecap="butt" stroke-linejoin="miter">
	<path stroke='rgb( 86, 180, 233)'  d='M567.2,472.0 L609.4,472.0  '/></g>
	</g>
<g fill="none" color="#FFFFFF" stroke="rgb( 86, 180, 233)" stroke-width="2.00" stroke-linecap="butt" stroke-linejoin="miter">
</g>
<g fill="none" color="black" stroke="currentColor" stroke-width="2.00" stroke-linecap="butt" stroke-linejoin="miter">
</g>
<g fill="none" color="black" stroke="black" stroke-width="1.00" stroke-linecap="butt" stroke-linejoin="miter">
</g>
<g fill="none" color="black" stroke="currentColor" stroke-width="1.00" stroke-linecap="butt" stroke-linejoin="miter">
	<path stroke='black'  d='M45.6,18.1 L45.6,436.0 L615.0,436.0 L615.0,18.1 L45.6,18.1 Z  '/></g>
<g fill="none" color="black" stroke="currentColor" stroke-width="1.00" stroke-linecap="butt" stroke-linejoin="miter">
</g>
</g>
</svg>
